X:463
T:Lieutenant A. Stewart
R:Reel
C:"D. Mc.K."
B:The Athole Collection
M:C|
L:1/8
K:A
e|cAA=c B=GGB|cAAc defd|cAA=c B=GGB|dfec A2A:|
e|cee=g fafd|ceef =gdB=G|cee=g faeg|B=G dB A2 Ae|
cee=g fafd|ceef =gdB=G|ceae fdec|B=GdB A2A||

